X: 15961
T: Grant's
R: reel
M: 4/4
K: Emajor
(3Bcd|:e2 BA GBEB|GBEB G~E3|B,EGE B,EGB|AGFG ABcd|
e2 BA G~E3|B~E3 GAB=d|ceag fe^df|e2 df eBcd:|
|:efga bgeg|~f3 e d~B3|eBeg b~g3|fe=dc ~B3 d|
cAce BG (3GGG|A2 F=D A,DFD|E2 ag fe^df|(3efe df eBcd:|

